X:2130
T:Statt Up
S:Halling av Sjurgure Garmo
S:Etter Ivar Odnes
Z:[[http://www.bluerose.karenlmyers.org/IncipitsHalling4.html|Karen Myers (#2130)]]
Z:Upptecknad 6/2005
M:2/4
L:1/16
R:Halling
K:D
D2>C2 | SB,2(B,D C2)CE | D4 D2D(C | B,2)B,(D C2)CE | D4 "^Fine" D4  |
|: A2(AB c2)(cd | e2)ef g4 | (f2ed) (cdef) | d2ec A4 | A2(AB c2)(cd | e2)ef g4 |
(f2ed) (cdec) | d4 d4 :: F2(FA E2)(EG | F2)(FA E2)(EG |
FG)AB A2A(G | F2)F(D FE)DC |1 D4 [A,4D4] :|2 D4 D4- | "^D.S. al Fine" D4 D2>(C2 |]
